X:1
T:Ida! Swet as apple cider
T:Ida! Sweet As Apple Cider
T:Munson/Leonard
%%score [ 1 2 3 4 ]
L:1/8
M:4/4
K:D
V:1 treble-8 nm="Tenor"
V:2 treble-8 nm="Lead"
V:3 bass nm="Baryton"
V:4 bass nm="Bass"
V:1
 d2 d2 f2 d2 | d4 d4 | c4 ^B4 | c6 z2 || d4 d4- | d2 d d d2 ^d2 | e4 c4- | c4 d2 d2 | c4 e4- | %9
w: Come and be my|sweet- heart,|do, please|do.|I- da!|_ sweet as ap- ple|ci- der,|_ You are|Sweet- er|
 e2 g2 g2 g2 | (f4 g4 | f4) z2 e2 | ^d4 d4- | d2 =d d ^d2 d2 | =d4 d4- | d2 d2 c2 d2 | d4 d4- | %17
w: _ than all I|know, _|_ Oh,|come out!|_ in the sil- v'ry|moon- light;|_ Of love we'll|whis- per,|
 d2 d2 c2 d2 | (c4 ^B4 | c4) z2 c2 | d4 d4- | d2 d2 d2 ^d2 | e4 c4- | c4 d2 d2 | c4 e4- | %25
w: _ so soft and|low! _|_ It|seems though|_ can't live with-|out you,|_ Won't you|lis- ten,|
 e2 g2 g2 g2 | (f4 g4 | f4) z2 e2 | ^d4 d4- | d2 ^^c2 ^d2 d2 | =d4 d4- | d4 z2 d2 | f2 f2 a2 a2 | %33
w: _ Oh! Hon- ey,|do! _|_ Oh,|I- da!|_ I i- dol-|ize ya,|_ I|love you, I- da,|
 ^g4 =g4 | (f4 d2) =c2 | ^c6 z2 || d3 d d2 d2 | d3 d d2 d2 | c2 e2 c4 | d d3 c4 | c3 c c2 c2 | %41
w: 'deed I|do, _ I|do.|In the re- gion|where the ros- es|al- ways bloom,|al- ways bloom,|Breath- ing out up-|
 c3 c d2 e2 | f2 d2 d4 | ^B2 B2 c4 | d3 d d2 d2 | d3 d d2 d2 | e2 e2 c4- | c8 | ^d3 d d2 d2 | %49
w: on the air their|sweet per- fume,|sweet per- fume;|Lives a pret- ty|maid I long to|call my own,|_|For I know my|
 e3 =d e2 d2 | c2 c2 c4 | c ^B3 c4 | d3 d d2 d2 | d3 d d2 d2 | c2 e2 c4 | d d3 c4 | c3 c c2 c2 | %57
w: love for her will|nev- er die,|nev- er die;|When the sun is|sink- in' in the|gold- en West,|gold- en West,|Lit- tle rob- in|
 c3 c d2 e2 | f2 d2 (d4 | B4 c4) | d3 d d2 d2 | d3 d d2 d2 | e2 e2 c4- | c8 | ^d3 d d2 d2 | %65
w: red breast gone to|seek their nests;|_ _|Then I sneak down|to the place I|love the best;|_|Ev- 'ry ev- 'ning|
 e3 =d e2 d2 | c6 e2 | ^e4- e4 || d4 d4- | d2 d2 d2 ^d2 | e4 c4- | c4 d2 d2 | c4 e4- | %73
w: there a- lone I|sigh, Oh|my! _|Seems though|_ can't live with-|out you,|_ Won't you|lis- ten,|
 e2 g2 g2 g2 | (f4 g4 | f4) z2 e2 | ^d4 d4- | d2 =d2 ^d2 d2 | =d4 d4- | d2 d2 c2 d2 | f2 f2 a2 a2 | %81
w: _ Oh! Hon- ey,|do! _|_ Oh,|I- da!|_ I i- dol-|ize ya,|_ I real- ly|love you, I- da,|
 ^g4 =g4 | f4 =f2 e2 | ^d6 z2 || ^g4 g4 | =g4 g4 | f2 f2 ^e e3 | f8 |] %88
w: 'deed I|do. 'deed I|do.|Love you,|I- da,|Yes, in- deed I|do!|
V:2
 A2 A2 d2 A2 | ^G4 E4 | A8- | A6 z2 || A4 B4- | B2 A A B2 ^B2 | c4 G4- | G8 | B4 c4- | %9
w: Come and be my|sweet- heart,|do.|_|I- da!|_ sweet as ap- ple|ci- der,|_|Sweet- er|
 c2 c2 e2 c2 | A8- | A4 z2 ^A2 | B4 A4- | A2 ^A A B2 F2 | F4 E4- | E2 E2 ^D2 E2 | F4 E4- | %17
w: _ than all I|know,|_ Oh,|come out!|_ in the sil- v'ry|moon- light;|_ Of love we'll|whis- per,|
 E2 E2 ^D2 E2 | A8- | A4 z2 B2 | A4 B4- | B2 A2 B2 ^B2 | c4 G4- | G4 G2 G2 | B4 c4- | c2 c2 e2 c2 | %26
w: _ so soft and|low!|_ It|seems though|_ can't live with-|out you,|_ Won't you|lis- ten,|_ Oh! Hon- ey,|
 A8- | A4 z2 ^A2 | B4 A4- | A2 ^A2 B2 F2 | F4 E4- | E4 z2 B2 | d2 B2 d2 B2 | d4 e4 | (d4 A4- | %35
w: do!|_ Oh,|I- da!|_ I i- dol-|ize ya,|_ I|love you, I- da,|'deed I|do. _|
 A6) z2 || A3 F A2 F2 | A3 F A2 ^G2 | =G2 C2 E4- | E8 | B3 A B2 A2 | B3 A B2 c2 | d2 F2 A4- | A8 | %44
w: _|In the re- gion|where the ros- es|al- ways bloom,|_|Breath- ing out up-|on the air their|sweet per- fume;|_|
 A3 F A2 F2 | A3 F A2 B2 | c2 A2 E4- | E8 | c3 B c2 B2 | c3 B c2 B2 | A2 E2 A4- | A8 | A3 F A2 F2 | %53
w: Lives a pret- ty|maid I long to|call my own,|_|For I know my|love for her will|nev- er die;|_|When the sun is|
 A3 F A2 ^G2 | =G2 C2 E4- | E8 | B3 A B2 A2 | B3 A B2 c2 | d2 F2 A4- | A8 | A3 F A2 F2 | %61
w: sink- in' in the|gold- en West,|_|Lit- tle rob- in|red breast gone to|seek their nests;|_|Then I sneak down|
 A3 F A2 B2 | c2 A2 E4- | E8 | c3 B c2 B2 | c3 B c2 B2 | A6 A2 | (c4 B4) || A4 B4- | B2 A2 B2 ^B2 | %70
w: to the place I|love the best;|_|Ev- 'ry ev- 'ning|there a- lone I|sigh, Oh,|my! _|Seems though|_ can't live with-|
 c4 G4- | G4 G2 G2 | B4 c4- | c2 c2 e2 c2 | A8- | A4 z2 ^A2 | B4 x4- | A2 ^A2 B2 F2 | F4 E4- | %79
w: out you,|_ Won't you|lis- ten,|_ Oh! Hon- ey,|do!|_ Oh,|I- da!|_ I i- dol-|ize ya,|
 E2 B2 ^A2 B2 | d2 B2 d2 B2 | d4 e4 | d4 c2 =c2 | B6 z2 || d4 B4 | c4 A4 | d2 d2 d d3 | d8 |] %88
w: _ I real- ly|love you, I- da,|'deed I|do, 'deed I|do.|Love you,|I- da,|Yes, in- deed I|do!|
V:3
 F,2 F,2 A,2 F,2 | B,4 ^G,4 | =G,4 F,4 | G,6 z2 || F,4 F,4- | F,2 F, F, F,2 F,2 | G,4 E,4- | %7
w: Come and be my|sweet- heart,|do, please|do.|I- da!|_ sweet as ap- ple|ci- der,|
 E,4 E,2 E,2 | G,4 G,4- | G,2 A,2 C2 A,2 | (D4 C4 | D4) z2 F,2 | A,4 B,4- | B,2 ^G, G, A,2 A,2 | %14
w: _ You are|Sweet- er|_ than all I|know, _|_ Oh,|come out!|_ in the sil- v'ry|
 ^G,4 G,4- | G,2 ^G,2 ^^F,2 G,2 | A,4 ^G,4- | G,2 ^G,2 ^^F,2 G,2 | (=G,4 F,4 | G,4) z2 G,2 | %20
w: moon- light:|_ Of love we'll|whis- per,|_ so soft and|low! _|_ It|
 F,4 F,4- | F,2 F,2 F,2 F,2 | G,4 E,4- | E,4 E,2 E,2 | G,4 G,4- | G,2 A,2 C2 A,2 | (D4 C4 | %27
w: seems though|_ can't live with-|out you,|_ Won't you|lis- ten,|_ Oh! Hon- ey.|do! _|
 D4) z2 F,2 | A,4 B,4- | B,2 ^G,2 A,2 A,2 | ^G,4 G,4- | G,4 z2 ^G,2 | A,2 D2 B,2 D2 | B,4 C4 | %34
w: _ Oh,|I- da!|_ I i- dol-|ize ya,|_ I|love you, I- da,|'deed I|
 (A,4 F,2) F,2 | G,6 z2 || F,3 A, F,2 A,2 | F,3 A, B,2 B,2 | A,2 G,2 G,4- | G,8 | G,3 G, G,2 G,2 | %41
w: do, _ I|do.|In the re- gion|where the ros- es|al- ways bloom,|_|Breath- ing out up-|
 G,3 G, G,2 G,2 | A,2 A,2 (F,4- | F,4 G,4) | F,3 A, F,2 A,2 | F,3 A, B,2 A,2 | A,2 C2 A,3 A, | %47
w: on the air their|sweet per- fume;|_ _|Lives a pret- ty|maid I long to|call my own, to|
 B,2 B,2 ^A,4 | =A,3 A, A,2 A,2 | ^G,3 G, G,2 G,2 | E,2 A,2 E,4 | F, F,3 G,4 | F,3 A, F,2 A,2 | %53
w: call my own,|For I know my|love for her will|nev- er die,|nev- er die;|When the sun is|
 F,3 A, B,2 B,2 | A,2 G,2 G,4- | G,8 | G,3 G, G,2 G,2 | G,3 G, G,2 G,2 | A,2 A,2 (F,4- | F,4 G,4) | %60
w: sink- in' in the|gold- en West,|_|Lit- tle rob- in|red breast gone to|seek their nests;|_ _|
 F,3 A, F,2 A,2 | F,3 A, B,2 A,2 | A,2 C2 A,3 A, | B,2 B,2 ^A,4 | =A,3 A, A,2 A,2 | %65
w: Then I sneak down|to the place I|love the bes, I|love the best;|Ev- 'ry ev- 'ning|
 ^G,3 G, G,2 G,2 | E,6 C2 | (B,4 ^G,4) || F,4 F,4- | F,2 F,2 F,2 F,2 | G,4 E,4- | E,4 E,2 E,2 | %72
w: there a- lone I|sigh, Oh,|my! _|Seems though|_ can't live with-|out you,|_ Won't you|
 G,4 G,4- | G,2 A,2 C2 A,2 | (D4 C4 | D4) z2 F,2 | A,4 B,4- | B,2 ^G,2 A,2 A,2 | ^G,4 G,4- | %79
w: lis- ten,|_ Oh! Hon- ey,|do! _|_ Oh,|I- da!|_ I i- dol-|ize ya,|
 G,2 ^G,2 ^^F,2 G,2 | A,2 D2 B,2 D2 | B,4 C4 | =C4 B,2 _B,2 | A,6 z2 || B,4 D4 | A,4 C4 | %86
w: _ I real- ly|love you, I- da,|'deed I|do, 'deed I|do.|Love you,|I- da,|
 A,2 A,2 B, B,3 | A,8 |] %88
w: Yes, in- deed I|do!|
V:4
 D,2 D,2 D,2 D,2 | E,4 B,,4 | E,4 ^D,4 | E,6 z2 || D,4 D,4- | D,2 D, D, D,2 ^G,,2 | A,,4 A,,4- | %7
w: Come and be my|sweet- heart,|do, please|do.|I- da!|_ sweet as ap- ple|ci- der,|
 A,,4 B,,2 ^A,,2 | A,,4 A,,4- | A,,2 E,2 A,2 E,2 | (D,4 E,4 | D,4) z2 C,2 | F,4 F,4- | %13
w: _ You are|Sweet- er|_ than all I|know, _|_ Oh,|come out!|
 F,2 ^E, E, F,2 B,,2 | B,,4 B,,4- | B,,2 B,,2 ^A,,2 B,,2 | B,,4 B,,4- | B,,2 B,,2 ^A,,2 B,,2 | %18
w: _ in the sil- v'ry|moon- light;|_ Of love we'll|whis- per,|_ so soft and|
 (E,4 ^D,4 | E,4) z2 E,2 | D,4 D,4- | D,2 D,2 D,2 ^G,,2 | A,,4 A,,4- | A,,4 B,,2 _B,,2 | %24
w: low! _|_ It|seems though|_ can't live with-|out you,|_ Won't you|
 A,,4 A,,4- | A,,2 E,2 A,2 E,2 | (D,4 E,4 | D,4) z2 C,2 | F,4 F,4- | F,2 ^E,2 F,2 B,,2 | %30
w: lis- ten,|_ Oh! Hon- ey,|do! _|_ Oh,|I- da!|_ I i- dol-|
 B,,4 B,,4- | B,,4 z2 E,2 | A,,2 D,2 F,2 =F,2 | E,4 A,4 | D,6 ^D,2 | E,6 z2 || D,3 D, D,2 D,2 | %37
w: ize ya,|_ I|love you, I- da,|'deed I|do, I|do.|In the re- gion|
 D,3 D, F,2 =F,2 | E,2 A,,2 A,,4 | B,, B,,3 A,,4 | E,3 E, E,2 E,2 | E,3 E, E,2 A,,2 | D,2 D,2 D,4 | %43
w: where the ros- es|al- ways bloom,|al- ways bloom,|Breath- ing out up-|on the air their|sweet per- fume,|
 ^D,2 D,2 E,4 | =D,3 D, D,2 D,2 | D,3 D, F,2 =F,2 | E,2 A,,2 A,,3 A,, | G,,2 G,,2 F,,4 | %48
w: sweet per- fume;|Lives a pret- ty|maid I long to|call my own, to|call my own,|
 F,3 F, F,2 F,2 | E,3 E, E,2 E,2 | A,,2 A,,2 A,,4 | A,, ^D,3 E,4 | D,3 D, D,2 D,2 | %53
w: For I know my|love for her will|nev- er die,|nev- er die;|When the sun is|
 D,3 D, F,2 =F,2 | E,2 A,,2 A,,4 | B,, B,,3 A,,4 | E,3 E, E,2 E,2 | E,3 E, E,2 A,,2 | %58
w: sink- in' in the|gold- en West,|gold- en West,|Lit- tle rob- in|red breast gone to|
 D,2 D,2 (D,4 | ^D,4 E,4) | =D,3 D, D,2 D,2 | D,3 D, F,2 =F,2 | E,2 A,,2 A,,3 A,, | %63
w: seek their nests;|_ _|Then I sneak down|to the place I|love the best, I|
 G,,2 G,,2 F,,4 | F,3 F, F,2 F,2 | E,3 E, E,2 E,2 | A,,6 A,2 | (^G,4 C,4) || D,4 D,4- | %69
w: love the best;|Ev- 'ry ev- 'ning|there a- lone I|sigh, Oh,|my! _|Seems though|
 D,2 D,2 D,2 ^G,,2 | A,,4 A,,4- | A,,4 B,,2 B,,2 | A,,4 A,,4- | A,,2 E,2 A,2 E,2 | (D,4 E,4 | %75
w: _ can't live with-|out you,|_ Won't you|list- ten,|_ Oh! Hon- ey,|do! _|
 D,4) z2 C,2 | F,4 F,4- | F,2 ^E,2 F,2 B,,2 | B,,4 B,,4- | B,,2 E,2 E,2 E,2 | A,,2 D,2 F,2 =F,2 | %81
w: _ Oh,|I- da!|_ I i- dol-|ize ya,|_ I real- ly|love you, I- da,|
 E,4 A,4 | A,4 ^G,2 =G,2 | F,6 z2 || E,4 E,4 | E,4 E,4 | D,2 D,2 G, G,3 | D,8 |] %88
w: 'deed I|do, 'deed I|do.|Love you,|I- da,|Yes, in- deed I|do!|

